poi_optician.svg

<svg xmlns="http://www.w3.org/2000/svg" viewBox="0 0 300 300" width="300" height="300"><style>.a{fill:#6e1d0b;}.b{fill:#db3916;}</style><style>  .a{fill:#6e1d0b;}.b{fill:#db3916;}</style><path d="M105 293 299 130C289 57 226 0 150 0 67 0 0 67 0 150 0 217 44 274 105 293Z" fill="#ffc85f"/><path d="m299 130-85-85-36-6-10 7 82 82 15 35-1 0-130-130-45 17L32 170 40 228 105 293C119 298 134 300 150 300c83 0 150-67 150-150 0-7 0-13-1-20z" fill="#ffae46"/><rect class="a" height="13" width="33" y="180" x="134" class="a"/><polygon class="b" points="62 256 44 247 101 127 115 122 119 135 " transform="scale(0.65217391 0.65217391)" class="b"/><circle r="52" cy="187" cx="82" fill="#fff"/><path d="m114 187c0-18-15-33-33-33l0 65c-18 0-33-15-33-33l-20 0c0 29 23 52 52 52 29 0 52-23 52-52l-20 0z" fill="#adeeff"/><path class="b" d="m82 128c32 0 59 26 59 59 0 32-26 59-59 59L75 239l7-7c25 0 46-20 46-46 0-25-20-46-46-46L75 134l7-7z" class="b"/><path d="m82 232 0 13c-32 0-59-26-59-59 0-32 26-59 59-59l0 13c-25 0-46 20-46 46 0 25 20 46 46 46z" fill="#fc5a37"/><polygon class="b" points="398 256 416 247 359 127 345 122 341 135 " transform="scale(0.65217391 0.65217391)" class="b"/><circle r="52" cy="187" cx="218" fill="#e0f8ff"/><path d="m251 187c0-18-15-33-33-33l0 65c-18 0-33-15-33-33l-20 0c0 29 23 52 52 52 29 0 52-23 52-52l-20 0z" fill="#7be3ff"/><path class="a" d="m218 128c32 0 59 26 59 59 0 32-26 59-59 59l-7-7 7-7c25 0 46-20 46-46 0-25-20-46-46-46l-7-7 7-7z" class="a"/><path class="b" d="m218 232 0 13c-32 0-59-26-59-59 0-32 26-59 59-59l0 13c-25 0-46 20-46 46 0 25 20 46 46 46z" class="b"/><path class="a" d="M78 88 66 83 79 55c6-12 21-21 34-21l20 0 0 13-20 0c-8 0-19 7-22 14L78 88Z" class="a"/><path class="a" d="M222 88 209 60C205 53 195 46 187 46l-20 0 0-13 20 0c13 0 28 9 34 21L234 83 222 88Z" class="a"/></svg>

<svg xmlns="http://www.w3.org/2000/svg" height="300" width="300" viewBox="0 0 300 300"><style>.a{fill:#6e1d0b;}.b{fill:#db3916;}</style><style>  .a{fill:#6e1d0b;}.b{fill:#db3916;}</style><style>    .a{fill:#6e1d0b;}.b{fill:#db3916;}</style><circle r="150" cy="150" cx="150" fill="#ffc85f"/><path d="M299 130L213 44 167 46 250 128 265 163 133 34 89 50 32 170 40 228 105 293C119 298 134 300 150 300 233 300 300 233 300 150 300 143 300 137 299 130Z" fill="#ffae46"/><rect transform="matrix(1 0 0 1 0 0)" x="134" y="180" width="33" height="13" class="a" class="a"/><path d="M41 167L29 161 66 83 78 88Z" class="b"/><circle cx="82" cy="187" r="52" fill="#fff"/><path d="M114 186C114 168 99 154 81 154L81 219C63 219 48 204 48 186L28 186C28 215 51 238 80 238 109 238 132 215 132 186Z" fill="#adeeff"/><path d="M82 127C114 127 141 154 141 187 141 219 115 245 82 245L82 232C107 232 128 212 128 186 128 161 108 140 82 140L75 133Z" class="b" class="b"/><path d="M82 232L82 245C50 245 23 219 23 186 23 154 49 127 82 127L82 140C57 140 36 160 36 186 36 211 56 232 82 232Z" fill="#fc5a37"/><path d="M260 167L272 161 234 83 222 88Z" class="b"/><circle cx="218" cy="187" r="52" fill="#e0f8ff"/><path d="M251 186C251 168 236 154 218 154L218 219C200 219 185 204 185 186L165 186C165 215 188 238 217 238 246 238 269 215 269 186Z" fill="#7be3ff"/><path d="M218 127C250 127 277 154 277 187 277 219 251 245 218 245L218 232C243 232 264 212 264 186 264 161 244 140 218 140L211 133Z" class="a" class="a"/><path d="M218 232L218 245C186 245 159 219 159 186 159 154 185 127 218 127L218 140C193 140 172 160 172 186 172 211 192 232 218 232Z" class="b" class="b"/><path d="M78 88L66 83 79 55C85 43 100 34 113 34L133 34 133 47 113 47C105 47 94 54 91 61L78 88Z" class="a" class="a"/><path d="M222 88L209 60C205 53 195 46 187 46L167 46 167 33 187 33C200 33 215 42 221 54L234 83 222 88Z" class="a" class="a"/></svg>
